qaazqaaz/images/landing/shapes/2.svg

<?xml version="1.0" encoding="UTF-8"?>
<svg width="36px" height="36px" viewBox="0 0 36 36" version="1.1" xmlns="http://www.w3.org/2000/svg" xmlns:xlink="http://www.w3.org/1999/xlink">
    <!-- Generator: Sketch 47 (45396) - http://www.bohemiancoding.com/sketch -->
    <title>2</title>
    <desc>Created with Sketch.</desc>
    <defs></defs>
    <g id="Page-1" stroke="none" stroke-width="1" fill="none" fill-rule="evenodd">
        <g id="Desktop-HD-Copy-3" transform="translate(-702.000000, -6619.000000)">
            <g id="2" transform="translate(704.000000, 6621.000000)">
                <path d="M4.57142857,0.507936508 C7.11111111,0.253968254 14.0353662,-7.10542736e-15 16,-7.10542736e-15 C18.0561153,-7.10542736e-15 24.8888889,0.253968254 27.4285714,0.507936508 C29.968254,0.761904762 31.2380952,2.03174603 31.4920635,4.57142857 C31.7460317,7.11111111 32,13.9327933 32,16 C32,18.0750418 31.7460317,24.8888889 31.4920635,27.4285714 C31.2380952,29.968254 29.968254,31.2380952 27.4285714,31.4854218 C24.8888889,31.7327484 18.0859894,32 16,32 C13.9179304,32 7.15919577,31.7327484 4.5954709,31.4854218 C2.03174603,31.2380952 0.761904762,29.968254 0.507936508,27.1746032 C0.253968254,24.3809524 1.27897692e-13,18.0756392 1.27897692e-13,16 C1.27897692e-13,13.8743554 0.253968254,7.36507937 0.507936508,4.57142857 C0.761904762,1.77777778 2.03174603,0.761904762 4.57142857,0.507936508 Z" id="Rectangle-7-Copy-27" stroke="#000000" stroke-width="4" fill="#FFFFFF"></path>
                <path d="M20,20.128 L14.9322709,20.176 L17.1314741,17.872 C18.0717131,16.896 18.7569721,16.048 19.2031873,15.36 C19.6334661,14.672 19.8565737,13.936 19.8565737,13.168 C19.8565737,11.264 18.310757,10 16,10 C13.7051793,10 12.12749,11.392 12.12749,13.44 L14.4063745,13.648 C14.4063745,12.576 15.059761,11.872 16.063745,11.872 C16.9721116,11.872 17.5936255,12.464 17.5936255,13.344 C17.5936255,13.712 17.4661355,14.144 17.2270916,14.608 C16.9721116,15.072 16.6533865,15.52 16.2868526,15.92 C15.9203187,16.32 15.6972112,16.56 15.6494024,16.608 L12,20.576 L12,22 L20,22 L20,20.128 Z" id="2-copy" fill="#000000"></path>
            </g>
        </g>
    </g>
</svg>

<svg width="36" height="36" xmlns="http://www.w3.org/2000/svg"><title>2</title><g id="Page-1" fill="none" fill-rule="evenodd"><g id="Desktop-HD-Copy-3" transform="translate(-702 -6619)"><g id="2" transform="translate(704 6621)"><path d="M4.571.508C7.111.254 14.035 0 16 0c2.056 0 8.889.254 11.429.508 2.54.254 3.81 1.524 4.063 4.063C31.746 7.111 32 13.933 32 16c0 2.075-.254 8.889-.508 11.429-.254 2.54-1.524 3.81-4.063 4.056-2.54.248-9.343.515-11.429.515-2.082 0-8.84-.267-11.405-.515-2.563-.247-3.833-1.517-4.087-4.31C.254 24.38 0 18.075 0 16c0-2.126.254-8.635.508-11.429C.762 1.778 2.032.761 4.57.508z" id="Rectangle-7-Copy-27" stroke="#000" stroke-width="4" fill="#FFF"/><path d="M20 20.128l-5.068.048 2.2-2.304c.94-.976 1.625-1.824 2.071-2.512.43-.688.654-1.424.654-2.192C19.857 11.264 18.31 10 16 10c-2.295 0-3.873 1.392-3.873 3.44l2.28.208c0-1.072.653-1.776 1.657-1.776.908 0 1.53.592 1.53 1.472 0 .368-.128.8-.367 1.264a6.811 6.811 0 0 1-.94 1.312c-.367.4-.59.64-.638.688L12 20.576V22h8v-1.872z" id="2-copy" fill="#000"/></g></g></g></svg>
